X: 9696
T: Death And The Sinner
R: waltz
M: 3/4
K: Eminor
|:B>A|G2 A2 Bc|d4 g>f|e2 d2 B>A|B G3 AB|
c2 B2 B>A|B e3 d>B|A4 (3BAG|A4:|
GB|d2 e2 fa|g4 (3efg|a2 e2 dB|A2 A2 Bd|g2 a2 bg|
a2 a2 gf|e2 d2 B2|A>A A2 Bd|g2 a2 bg|a4 gf|
e2 d2 B2|A>B G2 AB|c4 BA|B e3 dB|A4 (3GAB|A4||

